X: 14
T:The Forester
% Nottingham Music Database
P:A(ABB) times 4
S:Fieldtown
M:4/4
L:1/4
K:D
P:A
(3A/2B/2c/2|"D"d/2c/2d/2e/2 d(3E/2F/2G/2|"D"A/2B/2A/2F/2 D(3A/2B/2c/2|\
"D"d/2c/2d/2e/2 f/2e/2d/2e/2|"Em"f/2e/2e/2d/2 "A7"e/2g/2f/2e/2|
"D"d/2c/2d/2e/2 d/2A/2F/2G/2|"D"A/2B/2A/2F/2 D(3E/2F/2G/2|\
"D"A/2B/2A/2G/2 F/2A/2d/2e/2|"D"f/2d/2"A7"e/2c/2 "D"d||
P:B
A/2G/2|"D"F/2A/2d/2A/2 F/2A/2d/2A/2|"G"BG G(3c/2B/2A/2|\
"E7"^G/2B/2e/2B/2 G/2B/2e/2B/2|
"A7"cA AG|"D"Fd dc|"G"B/2A/2B/2c/2 "A"de|"Bm"g/2f/2e/2d/2 "A7"c/2A/2B/2c/2|\
"D"dd d:|<end>
<start>
